src/img/leaf2.svg

<svg width="127" height="195" viewBox="0 0 127 195" fill="none" xmlns="http://www.w3.org/2000/svg">
<mask id="mask0_0_8" style="mask-type:alpha" maskUnits="userSpaceOnUse" x="0" y="0" width="161" height="195">
<path d="M0.307495 0H160.001V194.789H0.307495V0Z" fill="white"/>
</mask>
<g mask="url(#mask0_0_8)">
<path fill-rule="evenodd" clip-rule="evenodd" d="M126.409 190.425C155.454 170.495 161.472 134.274 159.724 101.831C159.433 96.414 159.959 90.6942 157.154 85.9812C154.345 81.273 147.939 78.1259 142.86 80.4918C138.647 82.4559 136.879 87.1653 134.572 91.0747C131.505 96.2769 126.871 100.615 121.376 103.429C117.766 105.279 113.281 106.446 109.65 104.625C104.672 102.127 103.976 95.6801 103.914 90.2876C103.798 80.2425 103.683 70.1973 103.57 60.1521C103.508 54.7632 103.426 49.2608 101.564 44.1744C99.7032 39.0869 95.7076 34.4011 90.2698 33.0515C84.8332 31.7019 78.1955 34.7651 77.147 40.0595C76.7108 42.2623 77.2244 44.5337 77.1057 46.7732C76.9882 49.0126 75.9334 51.505 73.7013 52.1645C71.4404 52.8334 69.1383 51.3431 67.4086 49.7914C61.4396 44.4462 57.329 37.5009 53.4809 30.5898C49.6316 23.6788 45.8884 16.6011 40.4531 10.7501C35.0215 4.9026 27.5677 0.318458 19.4116 0.0123759C11.2567 -0.291342 2.6619 4.61069 0.740973 12.2202C-1.18746 19.8533 3.62799 27.4853 8.83212 33.5537C16.5496 42.5566 25.6306 50.4828 35.6989 57.0003C37.5136 58.1786 39.482 59.449 40.2044 61.4344C41.5029 65.0081 37.9735 68.6338 34.2516 69.8747C30.0336 71.2822 25.4281 70.9383 21.0001 71.5055C16.5721 72.0728 11.8016 74.0038 10.1944 78.0018C7.96477 83.5479 12.9302 89.2429 17.7819 92.9478C27.5015 100.366 38.5497 106.171 50.2939 110.032C54.5032 111.416 58.93 112.617 62.3544 115.35C65.7801 118.08 67.9035 122.889 65.9326 126.718C63.9617 130.553 58.75 131.851 54.3545 131.15C49.959 130.452 45.9922 128.261 41.7891 126.837C33.9217 124.166 23.8346 124.839 18.9429 131.321C15.7272 135.581 15.5423 141.446 17.297 146.433C19.0504 151.422 22.5036 155.686 26.1617 159.615C38.9433 173.339 55.1844 184.29 73.4263 189.953C91.6658 195.618 108.499 196.96 126.409 190.425Z" fill="#F3AF47"/>
<path fill-rule="evenodd" clip-rule="evenodd" d="M129.203 239.662C129.748 232.427 129.343 228.359 127.842 215.437C126.375 202.52 123.134 187.29 117.781 170.906C112.46 154.509 105.068 136.995 96.6797 118.931C94.5638 114.425 92.4767 109.97 90.417 105.579C88.3499 101.202 86.3002 96.8601 84.0218 92.7321C79.5026 84.4561 74.4984 76.8288 69.5093 69.731C64.5238 62.6273 59.5209 56.0578 54.7967 49.9515C50.0563 43.8524 45.5258 38.246 41.1702 33.3049C32.4842 23.3874 24.5055 16.1951 18.814 11.4715C15.9745 9.10084 13.7098 7.33053 12.1551 6.15111L10.3816 4.81806C9.97795 4.52261 9.76674 4.37843 9.75424 4.39143C9.74174 4.40679 9.93171 4.57697 10.3154 4.89842C10.7391 5.24822 11.3065 5.71385 12.0226 6.30592C13.5324 7.53852 15.7545 9.35374 18.549 11.7658C24.1481 16.5756 32.018 23.8199 40.6053 33.7635C44.9159 38.7199 49.4001 44.3393 54.1031 50.4526C58.7935 56.5778 63.764 63.1521 68.7156 70.2498C73.6686 77.3453 78.639 84.9548 83.1195 93.1918C85.3804 97.302 87.405 101.606 89.4747 105.996C91.5293 110.384 93.6152 114.839 95.7286 119.342C104.11 137.39 111.511 154.85 116.868 171.185C122.254 187.505 125.554 202.656 127.11 215.516C128.699 228.382 129.218 232.408 128.797 239.634" fill="#263238"/>
<path fill-rule="evenodd" clip-rule="evenodd" d="M82.2221 90.7574C82.2833 90.7692 82.4371 89.9443 82.6658 88.4435C82.902 86.9473 83.1757 84.7681 83.4794 82.0713C84.0906 76.6812 84.7042 69.204 85.3503 60.9587C85.9977 52.7075 86.7051 45.2611 87.3875 39.8958C87.725 37.2131 88.0161 35.0422 88.2336 33.5461C88.4461 32.0476 88.5336 31.2097 88.4711 31.1955C88.4111 31.1813 88.2086 31.992 87.8899 33.4692C87.5637 34.9465 87.1763 37.1056 86.7601 39.7859C85.9103 45.1441 85.0979 52.6082 84.4517 60.8677C83.8318 69.0067 83.2732 76.3692 82.8433 81.9956C82.6358 84.5365 82.4596 86.6779 82.3171 88.395C82.1971 89.9053 82.1596 90.7467 82.2221 90.7574Z" fill="#263238"/>
<path fill-rule="evenodd" clip-rule="evenodd" d="M9.75415 78.9495C9.7529 79.0181 10.7827 79.115 12.6399 79.2331C14.4946 79.3631 17.1804 79.5345 20.4924 79.8477C27.1188 80.4267 36.2397 81.5329 46.2518 83.1791C56.2614 84.8407 65.2536 86.7174 71.7151 88.2537C74.9545 89.0006 77.5578 89.6718 79.3625 90.1268C81.1622 90.5877 82.1683 90.8123 82.1921 90.7449C82.2121 90.6787 81.2435 90.3289 79.4725 89.751C77.7016 89.1802 75.1207 88.4038 71.8963 87.5647C65.4611 85.8464 56.4613 83.8539 46.4218 82.1852C36.3822 80.5367 27.21 79.538 20.5486 79.1398C17.2204 78.9152 14.5196 78.8502 12.6537 78.8443C10.7865 78.8455 9.7554 78.8798 9.75415 78.9495ZM116.843 168.187C116.878 168.201 117.037 167.905 117.321 167.332L118.507 164.798C119.525 162.591 120.914 159.364 122.574 155.355C125.904 147.337 130.139 136.122 134.641 123.688C139.148 111.248 143.269 100.009 146.419 91.9373C147.964 88.0103 149.235 84.784 150.181 82.3838L151.188 79.7791C151.407 79.18 151.507 78.8585 151.475 78.8443C151.439 78.8325 151.277 79.1256 150.996 79.7011L149.812 82.2337C148.792 84.4365 147.404 87.6675 145.741 91.6761C142.413 99.6922 138.179 110.907 133.673 123.348C129.17 135.785 125.047 147.023 121.898 155.097C120.352 159.018 119.082 162.25 118.139 164.645C117.734 165.688 117.404 166.548 117.13 167.252C116.91 167.852 116.81 168.172 116.843 168.187Z" fill="#263238"/>
<path fill-rule="evenodd" clip-rule="evenodd" d="M19.2027 138.417C19.1939 138.453 19.5276 138.583 20.1738 138.8C20.9361 139.042 21.8735 139.339 23.0095 139.702L33.4653 142.906C42.2938 145.615 54.443 149.498 67.8621 153.803C81.2861 158.114 93.4853 161.886 102.369 164.412C106.813 165.676 110.417 166.663 112.921 167.294C114.082 167.578 115.035 167.811 115.812 168.003C116.474 168.153 116.828 168.216 116.836 168.178C116.846 168.143 116.511 168.014 115.867 167.795L113.032 166.896L102.577 163.692C93.749 160.982 81.5973 157.1 68.1745 152.791C54.7555 148.483 42.5588 144.71 33.6715 142.185C29.2298 140.919 25.6254 139.933 23.1183 139.301L20.2288 138.592C19.5664 138.443 19.2139 138.382 19.2027 138.417Z" fill="#263238"/>
</g>
</svg>

<svg xmlns="http://www.w3.org/2000/svg" width="127" height="195" fill="none"><mask id="a" width="161" height="195" x="0" y="0" maskUnits="userSpaceOnUse" style="mask-type:alpha"><path fill="#fff" d="M.307 0h159.694v194.789H.307V0Z"/></mask><g fill-rule="evenodd" clip-rule="evenodd" mask="url(#a)"><path fill="#F3AF47" d="M126.409 190.425c29.045-19.93 35.063-56.151 33.315-88.594-.291-5.417.235-11.137-2.57-15.85-2.809-4.708-9.215-7.855-14.294-5.49-4.213 1.965-5.981 6.674-8.288 10.584-3.067 5.202-7.701 9.54-13.196 12.354-3.61 1.85-8.095 3.017-11.726 1.196-4.978-2.498-5.674-8.945-5.736-14.337-.116-10.045-.231-20.09-.344-30.136-.062-5.389-.144-10.891-2.006-15.978-1.86-5.087-5.856-9.773-11.294-11.123-5.437-1.35-12.075 1.714-13.123 7.008-.436 2.203.077 4.475-.041 6.714-.118 2.24-1.173 4.732-3.405 5.391-2.26.67-4.563-.82-6.292-2.373-5.97-5.345-10.08-12.29-13.928-19.201-3.85-6.911-7.593-13.989-13.028-19.84C35.022 4.903 27.568.318 19.412.012 11.257-.29 2.662 4.611.74 12.22c-1.928 7.633 2.887 15.265 8.091 21.334C16.55 42.557 25.631 50.483 35.7 57c1.815 1.179 3.783 2.449 4.505 4.434 1.299 3.574-2.23 7.2-5.952 8.44-4.218 1.408-8.824 1.064-13.252 1.632-4.428.567-9.198 2.498-10.806 6.496-2.23 5.546 2.736 11.24 7.588 14.946 9.72 7.418 20.768 13.223 32.512 17.084 4.21 1.384 8.636 2.585 12.06 5.318 3.426 2.73 5.55 7.539 3.579 11.368-1.971 3.835-7.183 5.133-11.579 4.432-4.395-.698-8.362-2.889-12.565-4.313-7.867-2.671-17.954-1.998-22.846 4.484-3.216 4.26-3.4 10.125-1.646 15.112 1.753 4.989 5.207 9.253 8.865 13.182 12.781 13.724 29.022 24.675 47.264 30.338 18.24 5.665 35.073 7.007 52.983.472Z"/><path fill="#263238" d="M129.203 239.662c.545-7.235.14-11.303-1.361-24.225-1.467-12.917-4.708-28.147-10.061-44.531-5.321-16.397-12.713-33.911-21.101-51.975-2.116-4.506-4.203-8.961-6.263-13.352-2.067-4.377-4.117-8.719-6.395-12.847-4.52-8.276-9.524-15.903-14.513-23.001-4.985-7.104-9.988-13.673-14.712-19.78-4.74-6.099-9.271-11.705-13.627-16.646-8.686-9.918-16.665-17.11-22.356-21.834a183.775 183.775 0 0 0-6.659-5.32l-1.773-1.333c-.404-.295-.615-.44-.628-.427-.012.016.178.186.561.507.424.35.992.816 1.708 1.408a293.468 293.468 0 0 1 6.526 5.46 208.376 208.376 0 0 1 22.056 21.998c4.31 4.956 8.795 10.575 13.498 16.689 4.69 6.125 9.661 12.7 14.613 19.797 4.953 7.095 9.923 14.705 14.404 22.942 2.26 4.11 4.285 8.414 6.355 12.804 2.054 4.388 4.14 8.843 6.254 13.346 8.381 18.048 15.782 35.508 21.139 51.843 5.386 16.32 8.686 31.471 10.242 44.331 1.589 12.866 2.108 16.892 1.687 24.118"/><path fill="#263238" d="M82.222 90.757c.061.012.215-.813.444-2.314.236-1.496.51-3.675.813-6.372.612-5.39 1.225-12.867 1.871-21.112.648-8.252 1.355-15.698 2.038-21.063.337-2.683.628-4.854.846-6.35.212-1.498.3-2.336.237-2.35-.06-.015-.262.796-.581 2.273-.326 1.477-.714 3.637-1.13 6.317-.85 5.358-1.662 12.822-2.308 21.082-.62 8.139-1.179 15.501-1.609 21.128-.207 2.54-.383 4.682-.526 6.399-.12 1.51-.157 2.352-.095 2.362Z"/><path fill="#263238" d="M9.754 78.95c-.001.068 1.029.165 2.886.283 1.855.13 4.54.301 7.852.615 6.627.579 15.748 1.685 25.76 3.331 10.01 1.662 19.002 3.538 25.463 5.075 3.24.747 5.843 1.418 7.647 1.873 1.8.46 2.806.685 2.83.618.02-.066-.948-.416-2.72-.994a139.96 139.96 0 0 0-7.576-2.186c-6.435-1.719-15.435-3.711-25.474-5.38-10.04-1.648-19.212-2.647-25.873-3.045-3.329-.225-6.03-.29-7.895-.296-1.867.002-2.899.036-2.9.106Zm107.089 89.237c.035.014.194-.282.478-.855l1.186-2.534c1.018-2.207 2.407-5.434 4.067-9.443 3.33-8.018 7.565-19.233 12.067-31.667 4.507-12.44 8.628-23.679 11.778-31.75 1.545-3.928 2.816-7.154 3.762-9.554l1.007-2.605c.219-.599.319-.92.287-.935-.036-.011-.198.282-.479.857l-1.184 2.533c-1.02 2.203-2.408 5.434-4.071 9.442-3.328 8.016-7.562 19.231-12.068 31.672-4.503 12.437-8.626 23.675-11.775 31.749-1.546 3.921-2.816 7.153-3.759 9.548-.405 1.043-.735 1.903-1.009 2.607-.22.6-.32.92-.287.935Z"/><path fill="#263238" d="M19.203 138.417c-.01.036.325.166.97.383.763.242 1.7.539 2.837.902l10.455 3.204c8.829 2.709 20.978 6.592 34.397 10.897 13.424 4.311 25.623 8.083 34.507 10.609 4.444 1.264 8.048 2.251 10.552 2.882 1.161.284 2.114.517 2.891.709.662.15 1.016.213 1.024.175.01-.035-.325-.164-.969-.383l-2.835-.899-10.455-3.204c-8.828-2.71-20.98-6.592-34.403-10.901-13.419-4.308-25.615-8.081-34.503-10.606-4.441-1.266-8.046-2.252-10.553-2.884l-2.89-.709c-.662-.149-1.014-.21-1.025-.175Z"/></g></svg>
